!!!OTL: Shjiapai
!!!ARE: Asia, China, Shanxi, Qitai
!! I, 335(1)
!!!SCT: C1441
!!!YEM: Copyright 1995, estate of Helmut Schaffrath.
**kern
*ICvox
*Ivox
*M2/4
*k[b-e-]
*B-:
{8r
16ddd
16fff
8bb-
16aa
16gg
=1
8gg
8dd
8fff
16ggg
16bbb-
=2
8ddd}
{16ddd
16fff
8bb-
16aa
16gg
=3
16ddd
16fff
8bb-
16aa
16gg}
{16dd
16ff
=4
8bb-
16aa
16gg
16ff
16gg
8dd
=5
8ddd
16ddd
16fff
8ggg
16ddd
16fff
=6
16.aa
32ccc
16gg
16ff
4dd}
=7
{8.bb-
16gg
8bb-
16bb-
16ccc
=8
16.ddd
32ccc
16ddd
16fff
16ggg
32ddd
32eee-
8ddd}
=9
{16ddd
8ccc
16ddd
8bbn
16ccc
16ddd
=10
16.gg
32aa
16gg
16ff
16gg
16dd
[8ff}
=11
{8ff]
8ggg
8fff
16eeen
16eeen
=12
16.ddd
32fff
16ddd
16gg
16.bb-
32bb-
16bb-
16ccc}
=13
{16.ddd
32ccc
16ddd
16fff
16ggg
32ddd
32eee-
16ddd
16ccc
=14
16.aa
32ccc
16gg
16ff
4dd}
==
!!!AGN: Wuge, Yangge, Jinzhong yangge
!!!ONB: ESAC (Essen Associative Code) Database: HUANG
!!!AMT: simple duple
!!!AIN: vox
!!!EED: Helmut Schaffrath
!!!EEV: 1.0
*-
!!!ONB: Tied note syntax fixed by Craig Sapp, 2004/05/03/
